X: 107
T:Drag Her round the Road
T:Shores of Lough Graney, The
M:C|
L:1/8
R:reel
D:Four Men and a Dog: Shifting Gravel
D:Molloy, Peoples, Brady
Z:id:hn-reel-374
K:Em
BEED E2GE|E2GE DEGA|BEED E2DE|1 GABG A2GA:|2 GABG A2BA||
~G3F GBdB|c2AB cded|~B3A GBde|dBGB A2BA|
~G3F GBdB|c2AB cdef|gedB c2ge|dBGB A2GA||
"variations"
|:BEED E2DE|GEDB, DEGA|BEED E2DE|1 GABG A2GA:|2 GABG ~A3F||
~G3F GBdB|cBAB cded|B2AB GBdB|GABG ~A3F|
DGGF GBdB|cBAB cdea|gedB cege|dBGA BA~A2||

% Output from ABC2Win  Version 2.1 i on 18/02/2003
